X:185
T:score263
L:1/8
Q:1/4=96
M:2/4
I:linebreak $
K:Bb
!pp! B z .e z/(d/ | c).g .f.B | (!>!ed) .c.B | (!>!d2 c) z | .B z .e z/(d/ |$ c).g .f(!>!b | %6
 g).f .e.d | .c.d .B z |] %8
